.icons/oomox-ad/24x24/panel/obs-tray-active.svg

<svg xmlns="http://www.w3.org/2000/svg" width="24" height="24" version="1.1">
 <defs>
  <style id="current-color-scheme" type="text/css">
   .ColorScheme-Text { color:#7ba5b5; } .ColorScheme-Highlight { color:#4285f4; }
  </style>
 </defs>
 <path style="fill:currentColor" class="ColorScheme-Text" d="m 12,4 a 8,8 0 0 0 -0.808594,0.041016 8,8 0 0 0 -0.78125,0.1191406 C 10.204,4.2019722 10.002871,4.2570472 9.8027344,4.3144531 A 8,8 0 0 0 9.625,4.3613281 C 9.58902,4.3725541 9.5553,4.3886691 9.5195312,4.4003911 A 8,8 0 0 0 5.8398438,6.90625 c -0.0035,0.00424 -0.0082,0.00747 -0.011719,0.011719 A 8,8 0 0 0 5.4375,7.4414062 C 5.40944,7.4816592 5.378902,7.5197612 5.351563,7.5605469 A 8,8 0 0 0 5.0800781,8.0039062 C 5.0292981,8.0914123 4.9772025,8.1780266 4.9296875,8.2675781 A 8,8 0 0 0 4.7363281,8.671875 c -0.04636,0.1006576 -0.09447,0.1998949 -0.1367187,0.3027344 A 8,8 0 0 0 4.4414062,9.404297 c -0.03732,0.108185 -0.07469,0.215964 -0.1074218,0.326172 a 8,8 0 0 0 -0.097656,0.376953 c -0.0354,0.144876 -0.070296,0.289689 -0.097656,0.4375 a 8,8 0 0 0 -0.048828,0.324219 c -0.02091,0.146481 -0.041867,0.292517 -0.054688,0.441406 A 8,8 0 0 0 4,12 8,8 0 0 0 4.041016,12.808594 c 2.59e-4,0.0026 -2.61e-4,0.0053 0,0.0078 a 8,8 0 0 0 0.1191406,0.773438 c 0.04182,0.206155 0.09689,0.407284 0.1542969,0.607422 a 8,8 0 0 0 0.046875,0.173828 c 0.01158,0.03719 0.026952,0.07242 0.039063,0.109375 A 8,8 0 0 0 6.90625,18.160156 c 0.0042,0.0035 0.0075,0.0082 0.011719,0.01172 A 8,8 0 0 0 7.4414062,18.5625 c 0.04025,0.02806 0.078351,0.0586 0.1191407,0.08594 a 8,8 0 0 0 0.4433593,0.271484 c 0.08751,0.05078 0.1741199,0.102875 0.2636719,0.15039 a 8,8 0 0 0 0.4042969,0.19336 c 0.100657,0.04636 0.1998944,0.09447 0.3027344,0.136719 A 8,8 0 0 0 9,19.410156 v -2.949218 c -0.1542027,0.01592 -0.308297,0.02098 -0.4589844,0.0039 -0.12848,-0.0144 -0.2231069,-0.02211 -0.3105468,-0.02149 -0.04368,3.04e-4 -0.074901,-0.0068 -0.1679688,0.02149 -0.01099,0.003 -0.029039,0.01219 -0.042969,0.01758 A 6,6 0 0 1 6,12 6,6 0 0 1 8.2636719,7.3046875 c -0.236615,0.5193882 -0.3938041,1.187374 -0.3925781,1.7363285 0.0012,0.512544 0.1258805,1.11942 0.3203124,1.605468 0.05136,0.12832 0.1132282,0.30088 0.2988282,0.416016 0.185616,0.1152 0.3195074,0.109899 0.5058594,0.130859 0.1619199,0.01824 0.4966432,0.09365 0.6445312,0.144532 1.489472,0.512432 2.18953,2.218484 1.490234,3.646484 -0.0027,0.0055 -0.007,0.01014 -0.0098,0.01563 h 1.683594 l -0.0918,-0.273438 c -0.53872,-1.630079 0.410991,-3.220033 2.082031,-3.501953 0.14704,-0.0248 0.29424,-0.03477 0.443359,-0.03125 1.038352,0.02464 2.06246,0.718765 2.4375,1.716797 0.02976,0.07936 0.05111,0.139356 0.07031,0.1875 0.0096,0.024 0.01989,0.04404 0.03125,0.06836 0.0064,0.0128 0.01076,0.02377 0.02148,0.04297 0.0048,0.0096 0.01272,0.02159 0.02344,0.03711 0.0066,0.0095 0.02032,0.02334 0.03516,0.03906 A 6,6 0 0 1 17.191406,15 h 2.21875 a 8,8 0 0 0 0.148438,-0.404297 c 0.03732,-0.108185 0.07469,-0.215963 0.107422,-0.326172 a 8,8 0 0 0 0.09766,-0.376953 c 0.0354,-0.144876 0.0703,-0.289688 0.09766,-0.4375 a 8,8 0 0 0 0.04883,-0.324219 c 0.02091,-0.146482 0.04187,-0.292517 0.05469,-0.441406 A 8,8 0 0 0 20,12 a 8,8 0 0 0 -0.04102,-0.808594 8,8 0 0 0 0,-0.0078 c -0.02671,-0.261919 -0.06763,-0.519544 -0.119136,-0.77345 -0.04182,-0.206155 -0.09689,-0.407284 -0.154297,-0.607422 -0.01571,-0.05477 -0.02612,-0.111729 -0.04297,-0.166015 a 8,8 0 0 0 -0.0039,-0.01172 c -0.01123,-0.03598 -0.02734,-0.0697 -0.03906,-0.105469 a 8,8 0 0 0 -2.505859,-3.6796872 8,8 0 0 0 -0.0098,-0.00977 c 0,0 -0.002,-0.00195 -0.002,-0.00195 A 8,8 0 0 0 16.558594,5.4375 C 16.518344,5.409439 16.480234,5.378899 16.439453,5.351563 A 8,8 0 0 0 15.996094,5.0800781 C 15.908584,5.0293011 15.821973,4.9772025 15.732422,4.9296875 A 8,8 0 0 0 15.328125,4.7363281 C 15.227468,4.6899651 15.128229,4.6418571 15.025391,4.5996094 A 8,8 0 0 0 14.595703,4.4414062 C 14.487519,4.4040902 14.379738,4.3667212 14.269531,4.3339844 a 8,8 0 0 0 -0.376953,-0.097656 c -0.144874,-0.035402 -0.289691,-0.070298 -0.4375,-0.097656 a 8,8 0 0 0 -0.324219,-0.048828 c -0.146478,-0.020912 -0.292522,-0.04187 -0.441406,-0.054688 A 8,8 0 0 0 12,4 Z m 0,2 a 6,6 0 0 1 5.958984,5.363281 c -0.165881,-0.264184 -0.356033,-0.517778 -0.591796,-0.75 -0.657601,-0.65104 -1.458057,-1.037182 -2.404297,-1.164062 -0.1408,-0.01888 -0.258692,-0.05346 -0.451172,0.01758 -0.19248,0.0704 -0.28695,0.223992 -0.34375,0.320312 -0.08208,0.13888 -0.55042,0.617797 -0.8125,0.785157 -0.74368,0.4752 -2.015479,0.47536 -2.761719,0 -0.8824,-0.56208 -1.3872356,-1.6648792 -1.2285156,-2.6367192 0.08992,-0.55008 0.3255306,-1.02726 0.7128906,-1.4375 0.08048,-0.08528 0.140269,-0.1519753 0.189453,-0.2070313 0.01183,-0.013252 0.021,-0.029917 0.03125,-0.041016 A 6,6 0 0 1 12,6 Z m -3.2792969,2.8300781 0.00195,0.00195 c 0.1049601,0.6310239 0.3580672,1.1659469 0.7832032,1.6582029 -0.14592,-0.03312 -0.2876328,-0.07903 -0.4179688,-0.09375 -0.14608,-0.01664 -0.153265,-0.02096 -0.140625,-0.0098 -0.0048,-0.0112 -0.00279,-0.0077 -0.015625,-0.03711 -0.1464,-0.36624 -0.2588056,-0.93778 -0.2597656,-1.3125 -1.28e-4,-0.05536 0.042748,-0.140455 0.048828,-0.207031 z m 6.1015629,1.3984379 c 0.0096,5.76e-4 -0.02552,0.0076 0.0332,0.01563 0.326176,0.04368 0.52545,0.271947 0.794922,0.380859 -0.337936,-0.05104 -0.644348,-0.245852 -0.990235,-0.1875 -0.06896,0.0112 -0.08905,0.09206 -0.15625,0.107422 0.1016,-0.1136 0.245913,-0.200406 0.31836,-0.316406 z m -1.574219,1.167968 c -0.57888,0.4704 -1.039871,1.055197 -1.275391,1.716797 -0.22288,-0.63856 -0.64366,-1.226192 -1.1875,-1.695312 0.8064,0.30208 1.666251,0.301231 2.462891,-0.02149 z"/>
 <path style="fill:currentColor" class="ColorScheme-Highlight" d="m 10,16 v 1 1 1 2 h 1 V 19.707031 L 12.292969,21 H 13 V 20.292969 L 11.707031,19 H 12 13 v -1 -1 -1 h -1 z m 4,0 v 1 3 1 h 1 2 v -1 h -2 v -1 h 2 v -1 h -2 v -1 h 2 v -1 z m 4,0 v 1 4 h 3 v -1 h -2 v -3 h 2 v -1 z m -7,1 h 1 v 1 h -1 z"/>
</svg>

<svg xmlns="http://www.w3.org/2000/svg" width="24" height="24" version="1.1">
 <defs>
  <style id="current-color-scheme" type="text/css">
   .ColorScheme-Text { color:#7ba5b5; } .ColorScheme-Highlight { color:#4285f4; } .ColorScheme-NeutralText { color:#ff9800; } .ColorScheme-PositiveText { color:#4caf50; } .ColorScheme-NegativeText { color:#f44336; }
  </style>
 </defs>
 <path style="fill:currentColor" class="ColorScheme-Text" d="M 12 4 A 8 8 0 0 0 4 12 A 8 8 0 0 0 9 19.412 L 9 16.461 C 8.8458 16.477 8.6917 16.482 8.541 16.465 C 8.4126 16.45 8.3179 16.443 8.2305 16.443 C 8.1868 16.444 8.1556 16.437 8.0625 16.465 C 8.0515 16.468 8.0334 16.477 8.0195 16.482 A 6 6 0 0 1 6 12 A 6 6 0 0 1 8.2637 7.3047 C 8.0271 7.8241 7.8699 8.4921 7.8711 9.041 C 7.8723 9.5536 7.997 10.16 8.1914 10.646 C 8.2428 10.775 8.3046 10.947 8.4902 11.062 C 8.6758 11.179 8.8098 11.172 8.9961 11.193 C 9.158 11.212 9.4927 11.287 9.6406 11.338 C 11.13 11.85 11.83 13.556 11.131 14.984 C 11.128 14.99 11.124 14.995 11.121 15 L 12.805 15 L 12.713 14.727 C 12.174 13.096 13.124 11.507 14.795 11.225 C 14.942 11.2 15.089 11.19 15.238 11.193 C 16.277 11.218 17.301 11.912 17.676 12.91 C 17.706 12.99 17.727 13.05 17.746 13.098 C 17.756 13.122 17.766 13.142 17.777 13.166 C 17.784 13.179 17.788 13.19 17.799 13.209 C 17.804 13.219 17.812 13.231 17.822 13.246 C 17.829 13.256 17.843 13.269 17.857 13.285 A 6 6 0 0 1 17.189 15 L 19.412 15 A 8 8 0 0 0 20 12 A 8 8 0 0 0 12 4 z M 12 6 A 6 6 0 0 1 17.959 11.363 C 17.793 11.099 17.603 10.846 17.367 10.613 C 16.71 9.9628 15.909 9.5761 14.963 9.4492 C 14.822 9.4303 14.704 9.3958 14.512 9.4668 C 14.319 9.5372 14.225 9.6908 14.168 9.7871 C 14.086 9.926 13.618 10.405 13.355 10.572 C 12.612 11.047 11.34 11.048 10.594 10.572 C 9.7109 10.01 9.2064 8.9074 9.3652 7.9355 C 9.4551 7.3855 9.691 6.9083 10.078 6.498 C 10.159 6.4128 10.218 6.3461 10.268 6.291 C 10.279 6.2778 10.289 6.2611 10.299 6.25 A 6 6 0 0 1 12 6 z M 8.7207 8.8301 L 8.7227 8.832 C 8.8277 9.4631 9.0808 9.9984 9.5059 10.49 C 9.36 10.457 9.2182 10.411 9.0879 10.396 C 8.9418 10.38 8.9347 10.376 8.9473 10.387 C 8.9425 10.375 8.9444 10.379 8.9316 10.35 C 8.7852 9.9825 8.6729 9.4118 8.6719 9.0371 C 8.6718 8.9817 8.7146 8.8967 8.7207 8.8301 z M 14.822 10.229 C 14.832 10.229 14.797 10.236 14.855 10.244 C 15.182 10.288 15.381 10.516 15.65 10.625 C 15.312 10.574 15.006 10.379 14.66 10.438 C 14.591 10.447 14.571 10.53 14.504 10.545 C 14.606 10.431 14.75 10.345 14.822 10.229 z M 13.248 11.396 C 12.669 11.867 12.208 12.452 11.973 13.113 C 11.75 12.475 11.329 11.887 10.785 11.418 C 11.592 11.72 12.451 11.719 13.248 11.396 z"/>
 <path style="fill:currentColor" class="ColorScheme-Highlight" d="M 10,16 V 21 H 11 V 19.707 L 12.293,21 H 13 V 20.293 L 11.707,19 H 13 V 16 Z M 14,16 V 21 H 17 V 20 H 15 V 19 H 17 V 18 H 15 V 17 H 17 V 16 Z M 18,16 V 21 H 21 V 20 H 19 V 17 H 21 V 16 Z M 11,17 H 12 V 18 H 11 Z"/>
</svg>
